X:57
T:Ride a Mile
T:Riding a Mile
T:Riding a Mule
T:Ride a Mule
T:A Mile to Ride
R:slip jig
Z:id:hn-slipjig-57
M:9/8
K:G
dBG GDG G2e|dBG GBd gfe|dBG GDG G2E|F2G A2B cBA:|
|:def ~g3 fed|g2B ~B2A B2A|def ~g3 fed|e2A ~A2B cBA:|
BAB g2B g2B|BAB g2B b2B|BAB g2B g2B|~A3 A2B cBA|
BAB g2B g2B|BAB g2B b2g|~B3 b2g a2f|gfg e2f gfe||
P:last part also played with a missing bar:
BAB g2B g2B|BAB g2B b2B|BAB g2B g2B|~A3 A2B cBA|
BAB g2B g2B|BAB g2B b2g|a2f e2f g2e||
<end>
<start>
